frontend/public/twitter.svg

<svg width="52" height="52" viewBox="0 0 52 52" fill="none" xmlns="http://www.w3.org/2000/svg">
<circle cx="26" cy="26" r="25" stroke="#00FFEE" stroke-width="1.5"/>
<path d="M17.9171 33.2495C17.9111 33.2578 17.9046 33.2665 17.8975 33.2755C17.9187 33.2915 17.9399 33.3074 17.9612 33.3231L18.1978 32.5596C18.1478 32.5631 18.0976 32.566 18.0473 32.5686L17.6375 33.0718M17.9171 33.2495C17.9546 33.1978 17.9747 33.1564 17.9817 33.142L17.9827 33.1399C17.9888 33.1275 17.9911 33.1227 17.991 33.1229C17.9908 33.1234 17.9723 33.1609 17.9629 33.1777C17.9531 33.1952 17.9382 33.2203 17.9171 33.2495ZM17.9171 33.2495C17.9111 33.2579 17.9045 33.2666 17.8975 33.2754C17.8103 33.2096 17.7236 33.1417 17.6375 33.0718M17.6375 33.0718L18.0457 32.5687L17 32.5634C17.3068 32.815 17.3077 32.8131 17.3087 32.8108C17.3098 32.8085 17.3111 32.8059 17.6375 33.0718ZM20.7935 29.3976C20.5564 29.2191 20.3412 29.0048 20.1494 28.7454C20.324 28.7191 20.5127 28.6727 20.711 28.5914L22.3253 27.9294L20.7341 27.2135C19.9341 26.8536 19.3349 26.4298 18.9308 25.9136C18.7185 25.6424 18.5496 25.3323 18.4358 24.969C18.6556 25.0222 18.9125 25.0563 19.2047 25.032L20.814 24.8983L19.6736 23.7549C18.9435 23.023 18.519 22.3098 18.3626 21.5913C18.2731 21.1801 18.2653 20.7399 18.3612 20.2597C19.9184 21.8138 21.7223 22.9114 23.862 23.4749C23.8798 23.4797 23.8986 23.485 23.9182 23.4904C24.0223 23.5193 24.1501 23.5547 24.2826 23.5824C24.4647 23.6262 24.6448 23.682 24.8444 23.7439C24.9492 23.7764 25.0594 23.8106 25.1781 23.8455C25.3374 23.8924 25.5098 23.9395 25.676 23.9713C25.833 24.0013 26.0379 24.0287 26.2456 24.0033L26.2456 24.0033L26.2501 24.0028C26.4034 23.9831 26.5902 23.935 26.7645 23.8145C26.953 23.6843 27.0747 23.5053 27.1379 23.315C27.2377 23.0146 27.1792 22.7014 27.153 22.5614C27.1523 22.5577 27.1517 22.5542 27.151 22.5509C27.1388 22.485 27.1264 22.4228 27.1146 22.3632C27.0558 22.0664 27.0102 21.8363 27.0542 21.5646C27.4733 19.0362 30.1256 17.9601 32.0744 19.3955C32.5068 19.7167 32.9555 19.9196 33.4501 19.957C33.5818 19.9669 33.7104 19.9646 33.836 19.9523C33.823 19.968 33.81 19.9838 33.7971 19.9998L33.04 20.934L34.212 21.203C34.2188 21.2046 34.2255 21.2061 34.2323 21.2076C34.0535 21.3883 33.9042 21.5917 33.7927 21.8294C33.6377 22.1596 33.579 22.5066 33.5681 22.8638L33.5681 22.864C33.4434 26.9952 31.0855 30.6752 27.9726 32.6757C25.2156 34.4475 21.9519 34.8618 19.1357 33.2036C20.4984 32.9735 21.7779 32.4234 23.0256 31.4948L24.4228 30.4549L22.7072 30.1544C21.9079 30.0143 21.2825 29.7659 20.7935 29.3976ZM18.3636 23.3665C17.5659 22.2288 17.3216 21.0029 17.7529 19.6158L18.3636 23.3665ZM26.1547 23.2588C26.521 23.2119 26.4664 22.9432 26.3838 22.5371C26.3227 22.2364 26.2463 21.8604 26.3141 21.4433C26.8187 18.3932 30.0946 17.0044 32.5205 18.7927L26.1547 23.2588ZM35.2373 19.4784C35.1679 19.5728 35.0931 19.6642 35.0151 19.7544L34.795 19.6757C34.9397 19.6106 35.0859 19.5454 35.2373 19.4784ZM34.7365 18.8802C34.6939 18.9507 34.6435 19.0225 34.5849 19.0977C34.5743 19.1114 34.5635 19.125 34.5525 19.1387L34.7365 18.8802Z" fill="#00FFEE" stroke="#00FFEE" stroke-width="1.5"/>
</svg>

<svg width="52" height="52" fill="none" xmlns="http://www.w3.org/2000/svg"><circle cx="26" cy="26" r="25" stroke="#0FE" stroke-width="1.5"/><path d="M17.917 33.25a.773.773 0 0 1-.02.026l.064.047.237-.763-.15.009-.41.503m.28.177c.037-.051.057-.093.064-.107v-.002a1.9 1.9 0 0 0-.02.038.733.733 0 0 1-.045.072Zm0 0a.632.632 0 0 1-.02.026 9.307 9.307 0 0 1-.26-.203m0 0 .408-.503L17 32.563c.307.252.308.25.309.248 0-.002.002-.005.328.26Zm3.155-3.674a3.16 3.16 0 0 1-.644-.653 2.42 2.42 0 0 0 .562-.154l1.614-.662-1.59-.715c-.8-.36-1.4-.784-1.804-1.3a2.939 2.939 0 0 1-.495-.945c.22.053.477.087.769.063l1.609-.134-1.14-1.143c-.73-.732-1.155-1.445-1.311-2.164a3.217 3.217 0 0 1-.002-1.331c1.557 1.554 3.361 2.651 5.501 3.215l.056.015c.104.03.232.065.365.092.182.044.362.1.561.162.105.032.215.067.334.102.16.046.332.093.498.125.157.03.362.058.57.032h.004c.153-.02.34-.068.515-.189.188-.13.31-.309.373-.499.1-.3.041-.614.015-.754l-.002-.01-.036-.188c-.06-.297-.105-.527-.06-.798.418-2.529 3.07-3.605 5.02-2.17.432.322.88.525 1.375.562.132.01.26.008.386-.005a4.698 4.698 0 0 0-.039.048l-.757.934 1.172.269.02.005c-.178.18-.328.384-.44.621-.154.33-.213.678-.224 1.035-.125 4.131-2.482 7.811-5.595 9.812-2.757 1.771-6.021 2.186-8.837.528 1.362-.23 2.642-.78 3.89-1.71l1.397-1.04-1.716-.3c-.8-.14-1.425-.388-1.913-.756Zm-2.43-6.032c-.797-1.137-1.041-2.363-.61-3.75l.61 3.75Zm7.792-.107c.366-.047.311-.316.229-.722-.061-.3-.138-.677-.07-1.094.505-3.05 3.78-4.439 6.206-2.65l-6.365 4.466Zm9.082-3.78c-.07.094-.144.185-.222.275l-.22-.078.442-.198Zm-.5-.599a2.243 2.243 0 0 1-.184.259l.184-.259Z" fill="#0FE" stroke="#0FE" stroke-width="1.5"/></svg>
